www/assets/icons/edit_note.svg

<svg width="24" height="24" viewBox="0 0 24 24" xmlns="http://www.w3.org/2000/svg" fill='currentColor'><path d="M2.93378 8.5H13.9338V10.5H2.93378V8.5ZM2.93378 6.5H13.9338V4.5H2.93378V6.5ZM2.93378 14.5H9.93378V12.5H2.93378V14.5ZM17.9438 11.37L18.6538 10.66C19.0438 10.27 19.6738 10.27 20.0638 10.66L20.7738 11.37C21.1638 11.76 21.1638 12.39 20.7738 12.78L20.0638 13.49L17.9438 11.37ZM17.2338 12.08L11.9338 17.38V19.5H14.0538L19.3538 14.2L17.2338 12.08Z"/></svg>

<svg xmlns="http://www.w3.org/2000/svg" width="24" height="24" viewBox="0 0 24 24" fill='currentColor'><path d="M2.934 8.5h11v2h-11zm0-2h11v-2h-11zm0 8h7v-2h-7zm15.01-3.13.71-.71a.996.996 0 0 1 1.41 0l.71.71c.39.39.39 1.02 0 1.41l-.71.71zm-.71.71-5.3 5.3v2.12h2.12l5.3-5.3z"/></svg>
